X:107
T:Bleckynden's Maggot
M:6/8
L:1/8
B:Thompson's Compleat Collection of 200 Favourite Country Dances, vol. 1 (London, 1757)
Z:Transcribed and edited by Fynnian Titford-Mock, 2007
Z:abc's:AK/Fiddler's Companion
K:F
faf faf|gcc ccc|BdB BdB|AFF FFF|faf faf|gee fdd|ecc d=BB|cCC CCC:|
|:gbg gbg|aff fff|bag fed|^cde e^cA|bgg aff|bgg aff|f/g/af cfe|f3 F3:|

